X:248
T:The Sailor's Wife
R:jig
M:6/8
L:1/8
K:Dmin
DEF E2D | d2e f2g | agf edc | AcA GEC |
DEF E2D | d2e f2g | agf ed^c | d3 D3 ::
fga fga | fga agf | ecg ecg | ecg gfe |
fga agf | efg gfe | def ed^c | d3 D3 :|
